X:425
T: Soldatenabschied (144a), S. 321
N: T0313
O: Luxemburg
S: Singendes Volk, Esch-Alzette 1937, posth.]
N: Trotten, fff Margareta Schickes, um 1891,
N: mitgeteilt: hhh Heinrich Godefroid (Lehrer);
N: (144b)- Reuland, hhh Franz Deitz, 17.2.1911
N: (144c)- Rodershausen, fff Lutgen,
N: mitgeteilt, hhh Josef Bour (Lehrer)
R: historische, Kriegs- und Soldatenlieder]
M: 4/4
L: 1/16
K: G
D2D2 | G4B4B4A4 | G8D4
G2A2 | B2B2d4d4c4 | B6ABA4z4 |
d6c2B2A2G4 | e4e4d4z4 |
c4c2c2B2B2B4 | A4A4G4

@@@ Tune index: 8479
